app/component-library/components/Icons/Icon/assets/lock-slash.svg

<svg width="24" height="24" viewBox="0 0 24 24" fill="none" xmlns="http://www.w3.org/2000/svg">
<path d="M13.9106 15.72C13.9106 16.62 13.1806 17.35 12.2806 17.35C11.6406 17.35 11.0906 16.98 10.8306 16.45L13.0106 14.27C13.5406 14.53 13.9106 15.08 13.9106 15.72Z" fill="currentColor"/>
<path d="M22.0509 2.23C21.7509 1.93 21.2609 1.93 20.9609 2.23L18.1509 5.04C17.3809 3.02 15.4109 2 12.2809 2C6.65088 2 6.00088 5.58 6.00088 8.28V9.53C6.01088 9.53 6.02088 9.53 6.03088 9.53C3.20088 9.87 2.28088 11.28 2.28088 14.79V16.65C2.28088 18.25 2.47088 19.41 2.95088 20.24L2.50088 20.69C2.20088 20.99 2.20088 21.48 2.50088 21.78C2.66088 21.92 2.85088 22 3.05088 22C3.25088 22 3.44088 21.92 3.59088 21.77L22.0509 3.31C22.3609 3.01 22.3609 2.53 22.0509 2.23ZM7.63088 9.44C7.55088 9.44 7.48088 9.44 7.40088 9.44V8.28C7.40088 5.35 8.23088 3.4 12.2809 3.4C15.6809 3.4 16.7509 4.7 17.0509 6.15L13.7609 9.44H7.63088Z" fill="currentColor"/>
<path d="M22.2808 14.79V16.65C22.2808 20.75 21.0308 22 16.9308 22H7.69076C6.80076 22 6.36076 20.92 6.99076 20.29L9.81076 17.47C9.88076 17.57 9.96076 17.66 10.0408 17.75C10.7408 18.51 11.7808 18.91 12.9308 18.67C13.0208 18.65 13.1108 18.63 13.2008 18.59C13.2908 18.57 13.3708 18.54 13.4508 18.5C13.6508 18.43 13.8408 18.32 14.0208 18.19C14.0908 18.15 14.1508 18.1 14.2008 18.05C14.3508 17.93 14.4908 17.79 14.6108 17.64C14.6608 17.59 14.7108 17.53 14.7508 17.46C14.8808 17.28 14.9908 17.09 15.0608 16.89C15.1008 16.81 15.1308 16.73 15.1508 16.64C15.1908 16.55 15.2108 16.46 15.2308 16.37C15.4708 15.22 15.0708 14.18 14.3108 13.48C14.2308 13.4 14.1308 13.32 14.0308 13.25L17.1508 10.13C17.2008 10.08 17.2408 10.04 17.2908 10C17.6908 9.67 18.2008 9.51 18.7108 9.55C18.8008 9.56 18.9008 9.57 18.9908 9.59C19.1608 9.62 19.3308 9.66 19.4908 9.7C19.6508 9.74 19.8008 9.79 19.9508 9.84C20.2408 9.95 20.4908 10.08 20.7208 10.23C20.9508 10.38 21.1408 10.56 21.3208 10.77C21.4108 10.88 21.5008 11 21.5708 11.13C21.6408 11.24 21.7008 11.36 21.7608 11.49C21.8208 11.62 21.8708 11.76 21.9208 11.9C21.9808 12.07 22.0308 12.26 22.0708 12.46C22.1108 12.6 22.1308 12.75 22.1608 12.91C22.1808 13.06 22.2008 13.22 22.2208 13.39C22.2608 13.81 22.2808 14.28 22.2808 14.79Z" fill="currentColor"/>
</svg>

<svg xmlns="http://www.w3.org/2000/svg" width="24" height="24" viewBox="0 0 24 24" fill="none"><path d="M13.91 15.72c0 .9-.73 1.63-1.63 1.63-.64 0-1.19-.37-1.45-.9l2.18-2.18c.53.26.9.81.9 1.45zM22.05 2.23c-.3-.3-.79-.3-1.09 0l-2.81 2.81C17.38 3.02 15.41 2 12.28 2 6.65 2 6 5.58 6 8.28v1.25h.03c-2.83.34-3.75 1.75-3.75 5.26v1.86c0 1.6.19 2.76.67 3.59l-.45.45c-.3.3-.3.79 0 1.09.16.14.35.22.55.22.2 0 .39-.08.54-.23L22.05 3.31c.31-.3.31-.78 0-1.08zM7.63 9.44H7.4V8.28c0-2.93.83-4.88 4.88-4.88 3.4 0 4.47 1.3 4.77 2.75l-3.29 3.29H7.63z" fill="currentColor"/><path d="M22.28 14.79v1.86c0 4.1-1.25 5.35-5.35 5.35H7.69c-.89 0-1.33-1.08-.7-1.71l2.82-2.82c.07.1.15.19.23.28.7.76 1.74 1.16 2.89.92.09-.02.18-.04.27-.08.09-.02.17-.05.25-.09.2-.07.39-.18.57-.31.07-.04.13-.09.18-.14.15-.12.29-.26.41-.41.05-.05.1-.11.14-.18.13-.18.24-.37.31-.57.04-.08.07-.16.09-.25.04-.09.06-.18.08-.27.24-1.15-.16-2.19-.92-2.89-.08-.08-.18-.16-.28-.23l3.12-3.12c.05-.05.09-.09.14-.13.4-.33.91-.49 1.42-.45.09.01.19.02.28.04a6.178 6.178 0 0 1 .96.25c.29.11.54.24.77.39.23.15.42.33.6.54.09.11.18.23.25.36.07.11.13.23.19.36.06.13.11.27.16.41.06.17.11.36.15.56.04.14.06.29.09.45.02.15.04.31.06.48.04.42.06.89.06 1.4z" fill="currentColor"/></svg>
